fhem/www/images/fhemSVG/frost.svg

<?xml version="1.0" encoding="UTF-8" standalone="no"?>
<!-- Created with Inkscape (http://www.inkscape.org/) -->

<svg
   xmlns:dc="http://purl.org/dc/elements/1.1/"
   xmlns:cc="http://creativecommons.org/ns#"
   xmlns:rdf="http://www.w3.org/1999/02/22-rdf-syntax-ns#"
   xmlns:svg="http://www.w3.org/2000/svg"
   xmlns="http://www.w3.org/2000/svg"
   version="1.0"
   width="585"
   height="585"
   viewBox="0 0 468 468"
   id="svg2996">
  <defs
     id="defs3012" />
  <metadata
     id="metadata2998">
Created by potrace 1.8, written by Peter Selinger 2001-2007
<rdf:RDF>
  <cc:Work
     rdf:about="">
    <dc:format>image/svg+xml</dc:format>
    <dc:type
       rdf:resource="http://purl.org/dc/dcmitype/StillImage" />
    <dc:title></dc:title>
  </cc:Work>
</rdf:RDF>
</metadata>
  <path
     d="m 294.46875,13.25 c -5.09039,0 -14.14333,9.319205 -16.09375,16.5625 -0.84466,3.136875 -2.5845,15.395889 -3.84375,27.21875 -3.45981,32.483085 -5.05963,36.53125 -14.28125,36.53125 -2.64506,0 -9.85799,-2.012367 -16.03125,-4.5 -15.4613,-6.230419 -23.10555,-6.880717 -28.34375,-2.375 -3.15734,2.715809 -4.17265,5.035219 -4.71875,10.71875 -0.65249,6.79047 -0.37475,7.6567 4.59375,13.15625 2.92138,3.2336 13.57428,11.06926 23.65625,17.4375 32.22078,20.35215 33.20939,21.79803 33.5625,48.75 0.22766,17.37786 -1.75498,24.40625 -6.9375,24.40625 -1.76865,0 -11.08571,-3.86821 -20.6875,-8.59375 -11.75612,-5.78581 -17.64389,-8.01049 -18.03125,-6.8125 -0.31639,0.97846 -1.26314,9.12501 -2.09375,18.125 -2.36571,25.63296 -4.94145,27.3238 -24.4375,15.9375 -21.1045,-12.32571 -24.28169,-18.55955 -26,-50.84375 -1.84595,-34.6824 -3.09087,-38.88479 -12.75,-43.8125 -7.49895,-3.82569 -12.60529,-3.65783 -19,0.6875 -6.37524,4.33208 -8.21825,9.91338 -8.34375,25.09375 -0.0489,5.91645 -0.88332,13.02023 -1.84375,15.78125 -1.6336,4.69626 -2.11527,5.01314 -7.5625,4.78125 -3.95254,-0.16824 -13.79948,-4.02821 -30.625,-12 -27.323163,-12.94549 -32.636389,-14.34155 -40.1875,-10.4375 -6.68701,3.45729 -8.605912,7.83179 -8.625,19.8125 l 0,10.03125 19.5625,11.46875 c 24.561599,14.414 33.5,22.0924 33.5,28.6875 0,5.83445 -2.325383,8.67825 -14.9375,18.28125 -11.038479,8.40483 -13.10594,12.30148 -11.65625,21.96875 1.411895,9.41515 3.869922,11.15826 14.40625,10.3125 6.962953,-0.55891 13.203809,-2.77468 30.40625,-10.78125 24.90163,-11.59001 33.35395,-13.91496 42.875,-11.78125 13.07116,2.92931 28.57691,12.97118 31.0625,20.125 1.75806,5.0599 -2.97756,11.10849 -15.28125,19.5 -6.78059,4.62457 -12.12504,9.0549 -11.875,9.84375 0.25005,0.78886 5.46233,4.88638 11.59375,9.125 17.62592,12.18478 19.74999,18.70745 9.1875,28.25 -10.81381,9.76965 -26.3063,13.87662 -40.125,10.65625 -8.16229,-1.90218 -11.81631,-3.51411 -36.1875,-16.21875 -16.77886,-8.74676 -19.955889,-9.43689 -27.59375,-5.8125 -6.713645,3.18584 -9.693572,9.27919 -8.5625,17.53125 1.285339,9.37751 3.592856,11.96869 16.6875,18.78125 13.48323,7.01476 17.15625,10.20126 17.15625,14.84375 0,5.11395 -7.526422,11.25658 -29.40625,23.96875 -22.361848,12.99224 -25.994471,15.84429 -28.84375,22.53125 -4.557814,10.69674 -1.890234,20.50539 6.53125,23.875 11.125676,4.45161 14.486834,3.52395 46.46875,-12.71875 16.30932,-8.28301 30.61994,-15.0625 31.78125,-15.0625 4.76529,0 6.61153,6.55906 8.25,29.15625 l 1.59375,22.21875 9,0.9375 c 10.478,1.1221 16.03467,-0.82929 18.8125,-6.625 0.9916,-2.06891 2.79196,-15.60382 4,-30.09375 2.8317,-33.96498 3.97602,-38.97884 10.53125,-45.53125 7.35035,-7.34717 28.85614,-18.04864 33.78125,-16.8125 5.13781,1.28951 6.36124,4.82293 7.625,22.21875 1.40725,19.37119 2.38188,20.12304 15.28125,11.71875 10.70258,-6.97299 18.58398,-10.11253 22.71875,-9.03125 7.10422,1.8578 10.96464,17.96676 8.15625,34.09375 -2.12541,12.205 -8.32789,19.17799 -27.53125,30.96875 -28.09965,17.25306 -34.03125,22.87225 -34.03125,32.1875 0,4.05651 1.11647,6.33521 5.0625,10.28125 4.83054,4.83054 5.44022,5.04216 12.5625,4.25 4.11298,-0.45746 12.52361,-2.80779 18.6875,-5.21875 6.16392,-2.41096 12.72821,-4.40625 14.59375,-4.40625 7.2216,0 9.97927,6.7718 11.4375,27.96875 1.57054,22.82921 3.66996,38.25888 5.75,42.28125 2.18176,4.21902 7.03766,7.94922 11.5625,8.90625 7.35484,1.55561 16.87006,-3.2643 19.375,-9.8125 0.65021,-1.69975 1.88608,-13.6371 2.75,-26.53125 2.74085,-40.90724 4.6905,-46.09954 16.125,-43.1875 3.38717,0.86261 11.89871,3.63704 18.9375,6.15625 9.29121,3.32536 14.31759,4.38376 18.34375,3.84375 8.90482,-1.19439 10.13399,-2.99875 9.5,-14.21875 -0.6977,-12.3478 -0.95239,-12.58501 -33.09375,-34.0625 -28.99375,-19.3742 -28.9331,-19.31121 -28.03125,-41.28125 0.95858,-23.35166 6.97483,-26.50721 29.5625,-15.5 7.35084,3.58216 13.87731,6.53125 14.5,6.53125 0.62268,0 1.5702,-7.28158 2.125,-16.15625 1.2087,-19.33401 2.99712,-23.24934 9.90625,-21.84375 7.69802,1.56604 40.11197,18.36583 42.875,22.21875 2.56441,3.57593 3.04754,8.57456 6.3125,62.625 l 0.8125,13.125 L 430,468.625 c 10.8988,1.08986 16.42216,-0.46454 19,-5.28125 0.96386,-1.801 2.56483,-10.54296 3.53125,-19.4375 0.96644,-8.89455 2.61099,-17.20926 3.65625,-18.46875 3.55265,-4.28069 13.42467,-1.71145 36.125,9.375 11.67086,5.69985 23.31789,10.71003 25.875,11.125 5.5983,0.90848 15.75,-1.625 18.8125,-4.6875 3.46245,-3.46245 3.07001,-21.19849 -0.59375,-26.34375 -1.55761,-2.18745 -10.75977,-9.38824 -20.4375,-16 -21.99786,-15.02884 -28.375,-20.67161 -28.375,-25.0625 0,-4.34541 7.44941,-11.76531 17.5,-17.4375 8.82573,-4.98095 15.5,-12.01315 15.5,-16.375 0,-1.59519 -1.07379,-5.16415 -2.375,-7.90625 -7.10641,-14.97566 -23.31064,-11.75776 -68.875,13.65625 l -10.25,5.71875 -18.71875,-9.25 c -18.78712,-9.29445 -24.5625,-13.96263 -24.5625,-19.84375 0,-3.84591 3.41135,-7.05131 16.65625,-15.5 5.62527,-3.58826 10.6937,-7.25614 11.25,-8.15625 1.57897,-2.55485 -1.76724,-5.5447 -13.1875,-11.8125 -5.80326,-3.18501 -11.50611,-6.72485 -12.65625,-7.875 -3.62583,-3.6258 -2.48349,-9.63971 2.84375,-15.125 5.6763,-5.84471 21.36937,-16.54827 31.40625,-21.40625 l 6.90625,-3.34375 11,5.8125 c 40.76646,21.51365 45.80551,23.88456 52.1875,24.59375 9.32918,1.03668 13.645,-0.3646 16.1875,-5.28125 4.81469,-9.3106 1.42006,-15.8039 -14.96875,-28.6875 -11.57594,-9.10013 -15.84375,-13.94388 -15.84375,-17.9375 0,-4.79703 10.65104,-13.49891 30.71875,-25.15625 l 20.90625,-12.1875 0,-13.3125 c 0,-12.24921 -0.26693,-13.64192 -3.5,-16.875 -6.44419,-6.44419 -14.452,-4.50205 -46.59375,11.34375 -34.97931,17.2447 -35.96149,17.06001 -37.5,-8 -1.04966,-17.09746 -3.19819,-24.56703 -8.59375,-29.59375 -6.904,-6.43206 -21.53484,-2.04449 -23.34375,7 -0.50932,2.54665 -0.9655,12.43509 -1,22 -0.0344,9.56494 -0.60506,24.08529 -1.28125,32.25 -1.16965,14.12292 -1.45981,15.06671 -5.96875,19.71875 -2.6067,2.68941 -12.59783,8.84873 -22.1875,13.6875 -25.4369,12.83503 -26.81793,11.95757 -28.65625,-18.84375 -0.49436,-8.28304 -1.11057,-15.8543 -1.40625,-16.8125 -0.33932,-1.09961 -5.34929,1.18636 -13.53125,6.21875 -14.98687,9.21784 -21.96121,10.89572 -27.3125,6.5625 -3.30699,-2.67784 -3.57731,-3.88069 -4.09375,-18.96875 -0.91316,-26.67945 -1.32593,-26.07553 34.21875,-48.53125 26.45195,-16.71133 33,-22.60077 33,-29.6875 0,-4.018618 -1.14855,-6.336046 -4.90625,-10.09375 -6.53681,-6.536824 -12.65831,-6.47168 -29.9375,0.3125 -18.00747,7.070152 -25.11069,9.17159 -27.59375,8.21875 -3.40219,-1.305554 -4.78941,-9.645634 -6.34375,-37.78125 -0.80622,-14.593897 -2.14984,-28.919171 -2.96875,-31.8125 C 307.90807,20.946426 299.58221,13.25 294.46875,13.25 z m -1.125,234.78125 c 26.54345,0 48.0625,21.51905 48.0625,48.0625 0,26.54345 -21.51905,48.0625 -48.0625,48.0625 -26.54345,0 -48.0625,-21.51905 -48.0625,-48.0625 0,-26.54345 21.51905,-48.0625 48.0625,-48.0625 z"
     transform="scale(0.8,0.8)"
     id="path3043"
     style="fill:#000000;fill-opacity:1;stroke:none" />
</svg>

<?xml version="1.0" encoding="UTF-8" standalone="no"?>
<!-- Created with Inkscape (http://www.inkscape.org/) -->

<svg
   xmlns:dc="http://purl.org/dc/elements/1.1/"
   xmlns:cc="http://creativecommons.org/ns#"
   xmlns:rdf="http://www.w3.org/1999/02/22-rdf-syntax-ns#"
   xmlns:svg="http://www.w3.org/2000/svg"
   xmlns="http://www.w3.org/2000/svg"
   xmlns:sodipodi="http://sodipodi.sourceforge.net/DTD/sodipodi-0.dtd"
   xmlns:inkscape="http://www.inkscape.org/namespaces/inkscape"
   version="1.0"
   width="585"
   height="585"
   viewBox="0 0 468 468"
   id="svg2996"
   inkscape:version="0.48.5 r10040"
   sodipodi:docname="frost.svg">
  <sodipodi:namedview
     pagecolor="#ffffff"
     bordercolor="#666666"
     borderopacity="1"
     objecttolerance="10"
     gridtolerance="10"
     guidetolerance="10"
     inkscape:pageopacity="0"
     inkscape:pageshadow="2"
     inkscape:window-width="1920"
     inkscape:window-height="1125"
     id="namedview3008"
     showgrid="false"
     inkscape:zoom="1.6136752"
     inkscape:cx="292.5"
     inkscape:cy="292.5"
     inkscape:window-x="-9"
     inkscape:window-y="-9"
     inkscape:window-maximized="1"
     inkscape:current-layer="svg2996" />
  <defs
     id="defs3012" />
  <metadata
     id="metadata2998">
Created by potrace 1.8, written by Peter Selinger 2001-2007
<rdf:RDF>
  <cc:Work
     rdf:about="">
    <dc:format>image/svg+xml</dc:format>
    <dc:type
       rdf:resource="http://purl.org/dc/dcmitype/StillImage" />
    <dc:title />
  </cc:Work>
</rdf:RDF>
</metadata>
  <path
     style="fill:#000000;fill-opacity:1;stroke:none"
     d="M 294.46875 13.25 C 289.37836 13.25 280.32542 22.569205 278.375 29.8125 C 277.53034 32.949375 275.7905 45.208389 274.53125 57.03125 C 271.07144 89.514335 269.47162 93.5625 260.25 93.5625 C 257.60494 93.5625 250.39201 91.550133 244.21875 89.0625 C 228.75745 82.832081 221.1132 82.181783 215.875 86.6875 C 212.71766 89.403309 211.70235 91.722719 211.15625 97.40625 C 210.50376 104.19672 210.7815 105.06295 215.75 110.5625 C 218.67138 113.7961 229.32428 121.63176 239.40625 128 C 271.62703 148.35215 272.61564 149.79803 272.96875 176.75 C 273.19641 194.12786 271.21377 201.15625 266.03125 201.15625 C 264.2626 201.15625 254.94554 197.28804 245.34375 192.5625 C 233.58763 186.77669 227.69986 184.55201 227.3125 185.75 C 226.99611 186.72846 226.04936 194.87501 225.21875 203.875 C 222.85304 229.50796 220.2773 231.1988 200.78125 219.8125 C 179.67675 207.48679 176.49956 201.25295 174.78125 168.96875 C 172.9353 134.28635 171.69038 130.08396 162.03125 125.15625 C 154.5323 121.33056 149.42596 121.49842 143.03125 125.84375 C 136.65601 130.17583 134.813 135.75713 134.6875 150.9375 C 134.6386 156.85395 133.80418 163.95773 132.84375 166.71875 C 131.21015 171.41501 130.72848 171.73189 125.28125 171.5 C 121.32871 171.33176 111.48177 167.47179 94.65625 159.5 C 67.333087 146.55451 62.019861 145.15845 54.46875 149.0625 C 47.78174 152.51979 45.862838 156.89429 45.84375 168.875 L 45.84375 178.90625 L 65.40625 190.375 C 89.967849 204.789 98.90625 212.4674 98.90625 219.0625 C 98.90625 224.89695 96.580867 227.74075 83.96875 237.34375 C 72.930271 245.74858 70.86281 249.64523 72.3125 259.3125 C 73.724395 268.72765 76.182422 270.47076 86.71875 269.625 C 93.681703 269.06609 99.922559 266.85032 117.125 258.84375 C 142.02663 247.25374 150.47895 244.92879 160 247.0625 C 173.07116 249.99181 188.57691 260.03368 191.0625 267.1875 C 192.82056 272.2474 188.08494 278.29599 175.78125 286.6875 C 169.00066 291.31207 163.65621 295.7424 163.90625 296.53125 C 164.1563 297.32011 169.36858 301.41763 175.5 305.65625 C 193.12592 317.84103 195.24999 324.3637 184.6875 333.90625 C 173.87369 343.6759 158.3812 347.78287 144.5625 344.5625 C 136.40021 342.66032 132.74619 341.04839 108.375 328.34375 C 91.59614 319.59699 88.419111 318.90686 80.78125 322.53125 C 74.067605 325.71709 71.087678 331.81044 72.21875 340.0625 C 73.504089 349.44001 75.811606 352.03119 88.90625 358.84375 C 102.38948 365.85851 106.0625 369.04501 106.0625 373.6875 C 106.0625 378.80145 98.536078 384.94408 76.65625 397.65625 C 54.294402 410.64849 50.661779 413.50054 47.8125 420.1875 C 43.254686 430.88424 45.922266 440.69289 54.34375 444.0625 C 65.469426 448.51411 68.830584 447.58645 100.8125 431.34375 C 117.12182 423.06074 131.43244 416.28125 132.59375 416.28125 C 137.35904 416.28125 139.20528 422.84031 140.84375 445.4375 L 142.4375 467.65625 L 151.4375 468.59375 C 161.9155 469.71585 167.47217 467.76446 170.25 461.96875 C 171.2416 459.89984 173.04196 446.36493 174.25 431.875 C 177.0817 397.91002 178.22602 392.89616 184.78125 386.34375 C 192.1316 378.99658 213.63739 368.29511 218.5625 369.53125 C 223.70031 370.82076 224.92374 374.35418 226.1875 391.75 C 227.59475 411.12119 228.56938 411.87304 241.46875 403.46875 C 252.17133 396.49576 260.05273 393.35622 264.1875 394.4375 C 271.29172 396.2953 275.15214 412.40426 272.34375 428.53125 C 270.21834 440.73625 264.01586 447.70924 244.8125 459.5 C 216.71285 476.75306 210.78125 482.37225 210.78125 491.6875 C 210.78125 495.74401 211.89772 498.02271 215.84375 501.96875 C 220.67429 506.79929 221.28397 507.01091 228.40625 506.21875 C 232.51923 505.76129 240.92986 503.41096 247.09375 501 C 253.25767 498.58904 259.82196 496.59375 261.6875 496.59375 C 268.9091 496.59375 271.66677 503.36555 273.125 524.5625 C 274.69554 547.39171 276.79496 562.82138 278.875 566.84375 C 281.05676 571.06277 285.91266 574.79297 290.4375 575.75 C 297.79234 577.30561 307.30756 572.4857 309.8125 565.9375 C 310.46271 564.23775 311.69858 552.3004 312.5625 539.40625 C 315.30335 498.49901 317.253 493.30671 328.6875 496.21875 C 332.07467 497.08136 340.58621 499.85579 347.625 502.375 C 356.91621 505.70036 361.94259 506.75876 365.96875 506.21875 C 374.87357 505.02436 376.10274 503.22 375.46875 492 C 374.77105 479.6522 374.51636 479.41499 342.375 457.9375 C 313.38125 438.5633 313.4419 438.62629 314.34375 416.65625 C 315.30233 393.30459 321.31858 390.14904 343.90625 401.15625 C 351.25709 404.73841 357.78356 407.6875 358.40625 407.6875 C 359.02893 407.6875 359.97645 400.40592 360.53125 391.53125 C 361.73995 372.19724 363.52837 368.28191 370.4375 369.6875 C 378.13552 371.25354 410.54947 388.05333 413.3125 391.90625 C 415.87691 395.48218 416.36004 400.48081 419.625 454.53125 L 420.4375 467.65625 L 430 468.625 C 440.8988 469.71486 446.42216 468.16046 449 463.34375 C 449.96386 461.54275 451.56483 452.80079 452.53125 443.90625 C 453.49769 435.0117 455.14224 426.69699 456.1875 425.4375 C 459.74015 421.15681 469.61217 423.72605 492.3125 434.8125 C 503.98336 440.51235 515.63039 445.52253 518.1875 445.9375 C 523.7858 446.84598 533.9375 444.3125 537 441.25 C 540.46245 437.78755 540.07001 420.05151 536.40625 414.90625 C 534.84864 412.7188 525.64648 405.51801 515.96875 398.90625 C 493.97089 383.87741 487.59375 378.23464 487.59375 373.84375 C 487.59375 369.49834 495.04316 362.07844 505.09375 356.40625 C 513.91948 351.4253 520.59375 344.3931 520.59375 340.03125 C 520.59375 338.43606 519.51996 334.8671 518.21875 332.125 C 511.11234 317.14934 494.90811 320.36724 449.34375 345.78125 L 439.09375 351.5 L 420.375 342.25 C 401.58788 332.95555 395.8125 328.28737 395.8125 322.40625 C 395.8125 318.56034 399.22385 315.35494 412.46875 306.90625 C 418.09402 303.31799 423.16245 299.65011 423.71875 298.75 C 425.29772 296.19515 421.95151 293.2053 410.53125 286.9375 C 404.72799 283.75249 399.02514 280.21265 397.875 279.0625 C 394.24917 275.4367 395.39151 269.42279 400.71875 263.9375 C 406.39505 258.09279 422.08812 247.38923 432.125 242.53125 L 439.03125 239.1875 L 450.03125 245 C 490.79771 266.51365 495.83676 268.88456 502.21875 269.59375 C 511.54793 270.63043 515.86375 269.22915 518.40625 264.3125 C 523.22094 255.0019 519.82631 248.5086 503.4375 235.625 C 491.86156 226.52487 487.59375 221.68112 487.59375 217.6875 C 487.59375 212.89047 498.24479 204.18859 518.3125 192.53125 L 539.21875 180.34375 L 539.21875 167.03125 C 539.21875 154.78204 538.95182 153.38933 535.71875 150.15625 C 529.27456 143.71206 521.26675 145.6542 489.125 161.5 C 454.14569 178.7447 453.16351 178.56001 451.625 153.5 C 450.57534 136.40254 448.42681 128.93297 443.03125 123.90625 C 436.12725 117.47419 421.49641 121.86176 419.6875 130.90625 C 419.17818 133.4529 418.722 143.34134 418.6875 152.90625 C 418.6531 162.47119 418.08244 176.99154 417.40625 185.15625 C 416.2366 199.27917 415.94644 200.22296 411.4375 204.875 C 408.8308 207.56441 398.83967 213.72373 389.25 218.5625 C 363.8131 231.39753 362.43207 230.52007 360.59375 199.71875 C 360.09939 191.43571 359.48318 183.86445 359.1875 182.90625 C 358.84818 181.80664 353.83821 184.09261 345.65625 189.125 C 330.66938 198.34284 323.69504 200.02072 318.34375 195.6875 C 315.03676 193.00966 314.76644 191.80681 314.25 176.71875 C 313.33684 150.0393 312.92407 150.64322 348.46875 128.1875 C 374.9207 111.47617 381.46875 105.58673 381.46875 98.5 C 381.46875 94.481382 380.3202 92.163954 376.5625 88.40625 C 370.02569 81.869426 363.90419 81.93457 346.625 88.71875 C 328.61753 95.788902 321.51431 97.89034 319.03125 96.9375 C 315.62906 95.631946 314.24184 87.291866 312.6875 59.15625 C 311.88128 44.562353 310.53766 30.237079 309.71875 27.34375 C 307.90807 20.946426 299.58221 13.25 294.46875 13.25 z M 260.6875 235.9375 L 283.34375 249.0625 C 286.56975 248.3797 289.91445 248.03125 293.34375 248.03125 C 297.61566 248.03125 301.74463 248.579 305.6875 249.625 L 328.1875 236.40625 L 328.3125 263.15625 C 333.15169 268.29294 336.88085 274.49666 339.09375 281.375 L 362.84375 295.15625 L 339.71875 308.71875 C 337.65296 316.31489 333.76555 323.17661 328.5625 328.78125 L 328.6875 355.3125 L 306.375 342.375 C 302.22711 343.542 297.86465 344.15625 293.34375 344.15625 C 289.34209 344.15625 285.46675 343.67166 281.75 342.75 L 261.1875 354.84375 L 261.0625 331.6875 C 254.14129 325.40829 249.0593 317.137 246.71875 307.78125 L 226.5625 296.09375 L 246.75 284.25 C 249.0778 275.07582 254.06257 266.96446 260.8125 260.75 L 260.6875 235.9375 z "
     id="path3043"
     transform="scale(0.8,0.8)" />
</svg>
